optimized/solid/badge-check.svg

<svg xmlns="http://www.w3.org/2000/svg" viewBox="0 0 20 20" fill="currentColor" aria-hidden="true">
  <path fill-rule="evenodd" d="M6.26701 3.45496C6.91008 3.40364 7.52057 3.15077 8.01158 2.73234C9.15738 1.75589 10.8426 1.75589 11.9884 2.73234C12.4794 3.15077 13.0899 3.40364 13.733 3.45496C15.2336 3.57471 16.4253 4.76636 16.545 6.26701C16.5964 6.91008 16.8492 7.52057 17.2677 8.01158C18.2441 9.15738 18.2441 10.8426 17.2677 11.9884C16.8492 12.4794 16.5964 13.0899 16.545 13.733C16.4253 15.2336 15.2336 16.4253 13.733 16.545C13.0899 16.5964 12.4794 16.8492 11.9884 17.2677C10.8426 18.2441 9.15738 18.2441 8.01158 17.2677C7.52057 16.8492 6.91008 16.5964 6.26701 16.545C4.76636 16.4253 3.57471 15.2336 3.45496 13.733C3.40364 13.0899 3.15077 12.4794 2.73234 11.9884C1.75589 10.8426 1.75589 9.15738 2.73234 8.01158C3.15077 7.52057 3.40364 6.91008 3.45496 6.26701C3.57471 4.76636 4.76636 3.57471 6.26701 3.45496ZM13.7071 8.70711C14.0976 8.31658 14.0976 7.68342 13.7071 7.29289C13.3166 6.90237 12.6834 6.90237 12.2929 7.29289L9 10.5858L7.70711 9.29289C7.31658 8.90237 6.68342 8.90237 6.29289 9.29289C5.90237 9.68342 5.90237 10.3166 6.29289 10.7071L8.29289 12.7071C8.68342 13.0976 9.31658 13.0976 9.70711 12.7071L13.7071 8.70711Z" clip-rule="evenodd"/>
</svg>

<svg xmlns="http://www.w3.org/2000/svg" viewBox="0 0 20 20" fill="currentColor" aria-hidden="true">
  <path fill-rule="evenodd" d="M6.267 3.455a3.066 3.066 0 001.745-.723 3.066 3.066 0 013.976 0 3.066 3.066 0 001.745.723 3.066 3.066 0 012.812 2.812c.051.643.304 1.254.723 1.745a3.066 3.066 0 010 3.976 3.066 3.066 0 00-.723 1.745 3.066 3.066 0 01-2.812 2.812 3.066 3.066 0 00-1.745.723 3.066 3.066 0 01-3.976 0 3.066 3.066 0 00-1.745-.723 3.066 3.066 0 01-2.812-2.812 3.066 3.066 0 00-.723-1.745 3.066 3.066 0 010-3.976 3.066 3.066 0 00.723-1.745 3.066 3.066 0 012.812-2.812zm7.44 5.252a1 1 0 00-1.414-1.414L9 10.586 7.707 9.293a1 1 0 00-1.414 1.414l2 2a1 1 0 001.414 0l4-4z" clip-rule="evenodd"/>
</svg>
